X:1
T: The Dhu Hill
C:
R:Jig
Q:180
K:D
M:6/8
L:1/16
|:F4A2 c2d2c2|B2A2G2 B2c2d2|c4c2 f2e2d2|c2B2c2 F6:|
|:c2B2c2 A2B2c2|d2c2d2 B6|c2B2c2 f4f2|c2A2F2 F6:|
|:f4d2 d2c2B2|A2B2G2 F2G2A2|B4B2 c2B2c2|d6 A4A2|d6 d6:|
